svgs/sharp-duotone-light/star-christmas.svg

<svg xmlns="http://www.w3.org/2000/svg" viewBox="0 0 512 512"><!--! Font Awesome Pro 7.1.0 by @fontawesome - https://fontawesome.com License - https://fontawesome.com/license (Commercial License) Copyright 2025 Fonticons, Inc. --><path opacity=".4" fill="currentColor" d="M101.2 256l100.9 33.6 15.2 5.1 5.1 15.2 33.6 100.9 33.6-100.9 5.1-15.2 15.2-5.1 100.9-33.6-100.9-33.6-15.2-5.1-5.1-15.2-33.6-100.9-33.6 100.9-5.1 15.2-15.2 5.1-100.9 33.6z"/><path fill="currentColor" d="M217.3 294.7l-15.2-5.1-100.9-33.6 100.9-33.6 15.2-5.1 5.1-15.2 33.6-100.9 33.6 100.9 5.1 15.2 15.2 5.1 100.9 33.6-100.9 33.6-15.2 5.1-5.1 15.2-33.6 100.9-33.6-100.9-5.1-15.2zM50.6 272.9L192 320c36.5 109.4 57.8 173.4 64 192 6.2-18.6 27.5-82.6 64-192 109.4-36.5 173.4-57.8 192-64-18.6-6.2-82.6-27.5-192-64-36.5-109.4-57.8-173.4-64-192-6.2 18.6-27.5 82.6-64 192-109.4 36.5-173.4 57.8-192 64l50.6 16.9zM454.6 80l-22.6-22.6-11.3 11.3-64 64-11.3 11.3 22.6 22.6 11.3-11.3 64-64 11.3-11.3zM91.3 68.7l-11.3-11.3-22.6 22.6 11.3 11.3 64 64 11.3 11.3 22.6-22.6-11.3-11.3-64-64zM166.6 368l-22.6-22.6-11.3 11.3-64 64-11.3 11.3 22.6 22.6 11.3-11.3 64-64 11.3-11.3zm212.7-11.3l-11.3-11.3-22.6 22.6 11.3 11.3 64 64 11.3 11.3 22.6-22.6-11.3-11.3-64-64z"/></svg>

<svg xmlns="http://www.w3.org/2000/svg" viewBox="0 0 512 512"><!--! Font Awesome Pro 6.7.2 by @fontawesome - https://fontawesome.com License - https://fontawesome.com/license (Commercial License) Copyright 2024 Fonticons, Inc. --><defs><style>.fa-secondary{opacity:.4}</style></defs><path class="fa-secondary" d="M101.2 256l100.9 33.6 15.2 5.1 5.1 15.2L256 410.8l33.6-100.9 5.1-15.2 15.2-5.1L410.8 256 309.9 222.4l-15.2-5.1-5.1-15.2L256 101.2 222.4 202.1l-5.1 15.2-15.2 5.1L101.2 256z"/><path class="fa-primary" d="M217.3 294.7l-15.2-5.1L101.2 256l100.9-33.6 15.2-5.1 5.1-15.2L256 101.2l33.6 100.9 5.1 15.2 15.2 5.1L410.8 256 309.9 289.6l-15.2 5.1-5.1 15.2L256 410.8 222.4 309.9l-5.1-15.2zM50.6 272.9L192 320l47.1 141.4L256 512l16.9-50.6L320 320l141.4-47.1L512 256l-50.6-16.9L320 192 272.9 50.6 256 0 239.1 50.6 192 192 50.6 239.1 0 256l50.6 16.9zM454.6 80L432 57.4 420.7 68.7l-64 64L345.4 144 368 166.6l11.3-11.3 64-64L454.6 80zM91.3 68.7L80 57.4 57.4 80 68.7 91.3l64 64L144 166.6 166.6 144l-11.3-11.3-64-64zM166.6 368L144 345.4l-11.3 11.3-64 64L57.4 432 80 454.6l11.3-11.3 64-64L166.6 368zm212.7-11.3L368 345.4 345.4 368l11.3 11.3 64 64L432 454.6 454.6 432l-11.3-11.3-64-64z"/></svg>
